X:178
T:Unknown
R:reel
Z:transcribed by Dave Marshall
M:C|
K:D
| D3F A2ag | f2ef dBBA | BAFB ABde | f2ef dBAF |
D3F A2ag | f2ef dBBA | BAFB ABde | f2ef dBAB |
d2fd Adfd | d2fd BAFA | d2fd Adef | gfed BdAB |
d2fd Adfd | d2fd BAFA | d2cA BdAF | ABde fedA |
